apps/trade/public/tokens/sui.svg

<svg width="24" height="24" viewBox="0 0 24 24" fill="none" xmlns="http://www.w3.org/2000/svg">
    <rect width="24" height="24" rx="12" fill="#4CA2FF" />
    <g clip-path="url(#sui_clip0_10065_64211)">
        <path fill-rule="evenodd" clip-rule="evenodd"
            d="M15.7525 10.673L15.7522 10.6737C16.405 11.4922 16.795 12.5288 16.795 13.6563C16.795 14.8006 16.3933 15.8513 15.7229 16.6754L15.6652 16.7463L15.6499 16.6561C15.6369 16.5795 15.6216 16.502 15.6038 16.424C15.2683 14.95 14.1753 13.686 12.3762 12.6625C11.1614 11.9733 10.466 11.1434 10.2834 10.2005C10.1655 9.59075 10.2531 8.97832 10.4226 8.45374C10.5919 7.92934 10.8438 7.48998 11.0579 7.22547L11.058 7.2253L11.7578 6.36955C11.8806 6.21949 12.1103 6.21949 12.233 6.36955L15.7525 10.673ZM16.8594 9.81803L16.8595 9.81771L12.1688 4.08213C12.0792 3.97262 11.9116 3.97262 11.822 4.08213L7.13121 9.81778L7.13134 9.8181L7.11608 9.83702C6.25289 10.9082 5.73633 12.2694 5.73633 13.7512C5.73633 17.2023 8.53855 20 11.9954 20C15.4522 20 18.2545 17.2023 18.2545 13.7512C18.2545 12.2694 17.7379 10.9082 16.8747 9.83702L16.8594 9.81803ZM8.25358 10.6545L8.25377 10.6543L8.67332 10.1412L8.68601 10.236C8.69606 10.311 8.70823 10.3864 8.72268 10.4621C8.99415 11.8865 9.96393 13.0742 11.5853 13.994C12.9946 14.7961 13.8152 15.7185 14.0517 16.7301C14.1503 17.1523 14.1679 17.5676 14.1252 17.9308L14.1225 17.9533L14.1022 17.9632C13.4661 18.274 12.751 18.4484 11.9953 18.4484C9.34447 18.4484 7.19548 16.303 7.19548 13.6563C7.19548 12.52 7.59162 11.4759 8.25358 10.6545Z"
            fill="white" />
    </g>
    <defs>
        <clipPath id="sui_clip0_10065_64211">
            <rect width="12.528" height="16" fill="white" transform="translate(5.73633 4)" />
        </clipPath>
    </defs>
</svg>

<svg width="24" height="24" fill="none" xmlns="http://www.w3.org/2000/svg">
    <rect width="24" height="24" rx="12" fill="#4CA2FF"/>
    <g clip-path="url(#a)">
        <path fill-rule="evenodd" clip-rule="evenodd" d="M15.752 10.673a4.767 4.767 0 0 1 1.043 2.983 4.768 4.768 0 0 1-1.072 3.02l-.058.07-.015-.09a4.209 4.209 0 0 0-.046-.232c-.336-1.474-1.429-2.738-3.228-3.761-1.215-.69-1.91-1.52-2.093-2.463-.117-.61-.03-1.222.14-1.746.169-.525.42-.964.635-1.229l.7-.855a.307.307 0 0 1 .475 0l3.52 4.303Zm1.107-.855-4.69-5.736a.224.224 0 0 0-.347 0l-4.69 5.736-.016.019a6.216 6.216 0 0 0-1.38 3.914A6.254 6.254 0 0 0 11.996 20a6.254 6.254 0 0 0 6.258-6.249 6.216 6.216 0 0 0-1.38-3.914l-.015-.019Zm-8.605.837.42-.514.012.095c.01.075.022.15.037.226.271 1.425 1.24 2.612 2.862 3.532 1.41.802 2.23 1.725 2.467 2.736.098.422.116.838.073 1.2l-.002.023-.02.01a4.786 4.786 0 0 1-2.108.485c-2.65 0-4.8-2.145-4.8-4.792 0-1.136.397-2.18 1.059-3.002Z" fill="#fff"/>
    </g>
    <defs>
        <clipPath id="a">
            <path fill="#fff" d="M5.736 4h12.528v16H5.736z"/>
        </clipPath>
    </defs>
</svg>
